remix/Editor/number-2.svg

<svg viewBox="0 0 24 24" fill="currentColor" xmlns="http://www.w3.org/2000/svg"><path d="M16.0002 7.5C16.0002 5.29086 14.2094 3.5 12.0002 3.5C9.7911 3.5 8.00024 5.29086 8.00024 7.5H6.00024C6.00024 4.18629 8.68653 1.5 12.0002 1.5C15.314 1.5 18.0002 4.18629 18.0002 7.5C18.0002 8.93092 17.4993 10.2448 16.6633 11.276L9.344 19.9991L18.0002 20V22H6.00024L6 20.8731L15.0642 10.071C15.6485 9.37595 16.0002 8.47905 16.0002 7.5Z"/></svg>

<svg viewBox="0 0 24 24" xmlns="http://www.w3.org/2000/svg"><path fill="none" d="M0 0h24v24H0Z"/><path d="M16 7.5v0c0-2.21-1.8-4-4-4 -2.21 0-4 1.79-4 4H6v0c0-3.32 2.68-6 6-6 3.31 0 5.99 2.68 5.99 6 -.01 1.37-.48 2.7-1.34 3.77L9.33 19.99l8.657 0v2h-12v-1.13l9.064-10.81v0c.6-.72.93-1.64.93-2.58Z"/></svg>
